X:1
T:Barnyards O' Delgaty
M:2/4
L:1/4
K:C
 E3/2 D/2| C G,| A, C| A, G,| E3/2 D/2| C G,| A, C| D2| E3/2 D/2| C G,/2 G,/2|\
 A, C| A,G,/2-G,/2| G,2| G3/2 F/2| E C| C2|
